X:1
T:Le dolci rime Amore
T:Girolamo Scotto
T:Source : Madrigali a tre voci---Venetia---G.Scotto---1541. Editor : André Vierendeels (07/08/16).
T:Notes : Original clefs : C1, C3, C4 Editorial accidentals above the staff Original note values have been halved "Primi toni" 
T:Le dolci rime Amore
T:©
T:©
T:©
T:©
T:©
T:©
T:©
C:Girolamo Scotto
Z:©
%%score [ 1 [ 2 3 ] ]
L:1/8
Q:1/4=110
M:2/2
K:F
V:1 treble nm="Soprano" snm="S"
V:2 treble-8 nm="Tenor 1" snm="T 1"
V:3 treble-8 nm="Tenor 2" snm="T 2"
V:1
 z8 | z8 | A4 A2 A2 | E2 E2 G4 | D4 z2 A2 | A2 A2 E2 E2 | G3 F/E/ D4 | z4 z2 d2 | d2 d2 A2 A2 | %9
w: ||Le dol- ci|ri- me'A- mo-|re, che|per tu- a mer-|ce- * * de,|fur|me- co'un tem- po|
 c2 c2 G3 A | B2 A3 G G2- |"^#" G2 F2 G2 B2 | A3 G AB c2- | cBAG B2 A2- | AG G4 F2 | G2 A4 G2- | %16
w: e i be- i|ca- ri la- men-|* * ti, e'l|pian- * * * *|||to e'i so-|
 G2 F2 E2 E2 | DEFG A2 B2- | BA A4 G2 | A6 G2 | F2 E2 F2 A2- | A2 G2 A2 c2 | c2 c2 G2 G2 | %23
w: * spir va- ghi'ar-|den- * * * * *||ti, e'i|so- spir va- ghi|_ ar- den- ti|ch'e- ran piu dol-|
 B2 B2 A3 G | AB c3 B A2- | AG G4 F2 | D2 G3 F F2- | F2 E2 F2 A2 | A2 A2 E2 E2 | G2 G2 D3 E | %30
w: ci'as- sai ch'al- *|* * * * tri|_ non cre- *||* * de, ch'e-|ran piu dol- ci'as-|sai ch'al- tri non|
 F4 E2 D2- | D2 C2 D4- | D8 | D3 E FG A2- | AG G4 F2 | G8 || A4 A2 A2 | c2 c2 G2 G2 | B4 A2 ^F2 | %39
w: cre- * *|* * de,|_|no _ _ _ cre-||de.|Las- sa- to|m'han- no'et tu ri-|tra- to il|
 G2 A2 D4 | d4 d2 d2 | A2 A2 c2 c2 | G2 G2 B2 A2 | A3 G F2 E2 | F2 G2 z2 D2 | D2 D2 G2 E2- | %46
w: pie- * de,|las- sa- to|m'han- no'et tu ri-|tra- to il pie-|de, _ _ [il|pie de,] da|me, che fui tu-|
 EDEF G2 A2- | AGFE D2 A2- | AGAB cA d2- | dc c4 B2 | c4 G4 | G2 G2 A2 A2 | B2 F2 G2 G2 | %53
w: * * * * o seg-|* * * * gio, et|_ _ _ _ _ _ con-|* * sen- *|ti, che|di co- sa gen-|til fe- ra di-|
 A2 c3 B A2- | AG G4 F2 | G2 d2 d2 d2 | c2 B2 A2 A2 | G2 A2 F4 | E4 A4 | A6 A2 | G2 F4 E2 | %61
w: ven- * * *||ti, di quai piu|tue ne- mi- che'il|mon- do ve-|de, il|mun- do|ve- * *|
 F3 E DEFG | A2 G4 F2 | G3 F/G/ A2 D2 |"^b" E2 C4 C2- | C2 F3 G A2- | AG G4 F2 | G2 D2 D2 D2 | %68
w: ||* * * de, co-|me da col-|* p'a- * *|* * mo- *|re, lie- to'l fa-|
 D3 C DEFG | A2 G4 F2 | G8 |] %71
w: re- * * * * *||i.|
V:2
 z8 | z4 d4 | d2 d2 A2 A2 | c4 G3 A | B3 A G2 c2 | c2 d2 c2 c2- | c2 B2 B2 B2 | A2 d4 g2 | %8
w: |Le|dol- ci ri- me'A-|mo- re, _|_ _ _ che|per tua mer- ce-|de, per tua mer-|ce- de, fur|
 g2 g2 f2 f2 | e6 d2 | d3 c =B2 c2 | A4 G4 | z2 d2 f2 e2- | edef g2 f2- | f2 e4 dc | de f4 e2- | %16
w: me- co'un tem- po|e'i bei|ca- * ri la-|men- ti,|e'l pian- *|* * * * * to|_ spes- * *||
 ed d4 c2 | d3 e f2 d2 | c2 f4 ed | e2 f3 e d2 | d2 c2 d3 c | B4 A4- | A2 c3 def | g2 d3 e f2- | %24
w: |* * so e'i|so- spir _ _|_ _ _ _|va- * * *|* ghi'ar-|* den- * * *||
 f2 e2 f3 e | dc B2 A4 | B2 G2 A2 B2 | G4 A2 c2 | c2 c2 c2 c2 | G2 G2 B2 B2 | A2 c2 B2 A2 | %31
w: * * ti, _|_ _ _ _|* va- ghi'ar- den-|* ti, ch'e-|ran piu dol- ci'as-|sai ch'al- tri non|cre- * * de,|
 G4 A2 B2 | B2 A2 B4 | A3 B/c/ d2 c2 | B2 c2 A4 | G8 || f4 f2 f2 | e2 e2 d4 | d2 d2 A2 A2 | %39
w: ch'al- tri non|cre- * *|* * * de, al-|tri non cre-|de.|Las- sa- to|m'han- no, las-|sa- to m'han- no'et|
 c2 c2 B2 A2 | BG g4 f2- | f2 ed e2 f2 | d3 c de f2 | d2 c4 c2 | B4 A4 | z2 G2 G2 G2 | c6 A2 | %47
w: tu ri- tra- to|il _ pie- *|||de, il pie-|* de,|da me, che|fui tuo|
 d3 c B2 f2 | f2 f2 e2 d2 | e2 f2 d4 | c4 e4 | e2 e2 f2 c2 | d6 cB | A4 A2 c2- | c2 B2 A4 | %55
w: seg- * gio, et|mi con- sen- *||ti, che|di co- sa gen-|til _ _|_ fe- ra|_ di ven-|
 G2 B2 B2 B2 | A2 d4 c2- | c2 A2 B2 A2- | AB c3 BAG | F2 f3 edc | B2 A2 G4 | A4 B4 | c3 B A4 | %63
w: ti, di quai piu|tue ne- mi-|* ch'il mon- *||do ve- * * *||de il|mon- do ve-|
 G2 c4 B2 | c2 A2 A2 G2 | A4 B2 A2 | B4 A4 | G2 B2 B2 A2 | B4 A2 d2 | c2 B2 A4 | G8 |] %71
w: |de, co- me da|col- p'a- mo-||re, lie- to'il fa-|re- * *||i.|
V:3
 A4 A2 A2 | E2 E2 G4 | D3 E F4 | z2 C2 C2 C2 | G3 F E2 F2- | F2 D2 A4 | z2 G2 G2 G2 | F2 B3 AGF | %8
w: Le dol- ci|ri- me'A- mo-|* * re,|che per tu-|a mer- ce- *|* * de,|fur me- co'un|tem- * * * *|
 GABc d4 | c2 A2 c2 G2 | G2 F2 G2 C2 | D4 z2 d2 | d2 d2 A2 A2 | c2 c2 G2 A2 | B2 c2 A4 | %15
w: |po e'i bei ca-|ri la- men- *|ti, e'l|pian- to spes- so,|e'i so- spir va-|ghi'ar- den- *|
 G2 D2 F2 C2 | G2 D2 A4 | B4 z2 G2 | A2 A2 B4 | A2 D2 A2 B2 | A4 D4 | G4 F4- | F4 z2 G2 | %23
w: ti, e'i so- spir|va- ghi'ar- den-|ti, e'i|so- spir va-|ghi'ar- den- * *||* ti,|_ ch'e-|
 G2 G2 D2 D2 | A4 z2 F2 | G2 G2 D4 | G2 E2 F2 B,2 | C4 F4- | F4 z2 A2 |"^#" E2 E2 G2 G2 | %30
w: ran piu dol- ci'as-|sai ch'al-|tri non cre-|de, ch'al- tri non|cre- de,|_ ch'e-|ran piu dol- ci'as-|
 D2 A2 G2 F2 | E4 D2 G2 | G2 F2 G2 G2 | D6 F2 | G2 C2 D4 | G8 || d4 d2 d2 | A4 B3 A | G2 D2 D2 D2 | %39
w: sai, ch'al- tri non|cre- de, ch'al-|tri non cre- de,|al- tri|non cre- *|de.|Las- sa- to|m'han- * *|no, et tu ri-|
 E2 F2 G2 ^F2 | G3 A BABc | d3 c/B/ A2 A2 | B3 A G2 D2- | DEFE FG A2- | AG G4 F2 | %45
w: tra- to'il pie- *|de, _ _ _ _ _|_ _ _ _ il|pie- * de, il|_ _ _ _ _ _ _|* * pie- *|
"^-natural" G3 F E4 | z4 z2 D2 | D2 D2 G2 F2 | D2 D2 A2 B2 |"^#" A2 F2 G4 | C4 c4 | c2 c2 F2 F2 | %52
w: * * de,|da|me, che fui tuo|seg- gio, et mi|con sen- *|ti, che|di co- sa gen-|
 B6 AG | F6 F2 | C2 G2 D4 | G8 | z2 D2 D2 F2 | E2 F2 D2 D2 | C2 C2 F3 E | D6 D2 |"^b" E2 F2 C4 | %61
w: til _ _|_ fe-|ra di ven-|ti,|di quai piu|tue ne- mi- che'il|mon- do ve- *|de, il|mon- do ve-|
 F4 G4 |"^#" F2 C2 D4 | _E4 D4 |"^-natural" C2 F2 F2 E2 |"^#" F4 D4 | G4 D4 | z2 G2 G2 ^F2 | %68
w: |de, il mon-|do ve-|de, co- me de|col- p'a-|mo- re,|lie- to'il fa-|
 G4 D3 E |"^-natural" F2 G2 D4 | G8 |] %71
w: re- * *||i.|

